X: 56
T:Grand Père Corbefin
M:2/4
L:1/8
R:Rondeau
O:France
A:Gascogne
K:C
g>f eg|ed cd|1ee ef/2e/2|dc d2:|2ef gc|d2c2|
|:c/2d/2e/2f/2 gg|aa g/2a/2g/2f/2|e/2d/2e/2f/2 gg|aa g2:||
Mazurkas
W:
W: From "Falaleiro" http://home.t-online.de/home/pheld/homepage.htm

